!!!COM: Beethoven
!!!OTL: 24 Variationen uber Venni Amore von V. Righini
!!!Variation: Variation 4 b
**function	**harm	**kern	**kern	**kern	**kern
*M2/4	*M2/4	*staff3	*staff4	*staff1	*staff2
*D:	*D:	*clefF4	*clefF4	*clefG2	*clefG2
*tb16	*	*k[f#c#]	*k[f#c#]	*k[f#c#]	*k[f#c#]
*	*	*M2/4	*M2/4	*M2/4	*M2/4
*	*	*D:	*D:	*D:	*D:
=	=	=-	=-	=-	=-
2D	2V7	2r	[2AAA	4r	4r
.	.	.	.	([4ccc#	(4gg
=	=	=73	=73	=73	=73
2D	2I64	2r	2AAA]	8ccc#L]	4ff#)
.	.	.	.	8dddJ)	.
.	.	.	.	8ff#'L	4dd
.	.	.	.	8ff#'J	.
=	=	=74	=74	=74	=74
2D	2V7	2r	2AA	4r	4r
.	.	.	.	(4gg	([4cc#
=	=	=75	=75	=75	=75
2D	2I64	2r	2A	4ff#)	8cc#L]
.	.	.	.	.	8ddJ)
.	.	.	.	4dd	8f#'L
.	.	.	.	.	8f#'J
=	=	=76	=76	=76	=76
2D	2V65	4r	4r	2A	2r
.	.	([4G	4C#	.	.
=	=	=77	=77	=77	=77
4T	4I	8GL]	4D	4d	2r
.	.	8F#J)	.	.	.
4T	4I6	8D'L	4FF#	4a	.
.	.	8D'J	.	.	.
=	=	=78	=78	=78	=78
4P	4ii6	8DL	4GG	4ee	2r
.	.	16C#L	.	.	.
.	.	16BBJJ	.	.	.
4D	4V	8C#L	8AAL	4aa	.
.	.	8C#J	8AAJ	.	.
=	=	=79	=79	=79	=79
2T	2I	4D	4DD	4ddd	2r
.	.	4r	4DD	4r	.
=	=	=80:|!	=80:|!	=80:|!	=80:|!
*-	*-	*-	*-	*-	*-
